X: 131
T:The Stool of Repentance
R:Jig
N:The title refers to the  that 
N:people in some parts of the British Isles and Ne
Z:John Chambers <jc@eddie.mit.edu>
M:6/8
L:1/8
K:A
(3e/f/g/|:a2e c2e|a>gf edc|a>ff f2e|fag f2e |
a2e c2e|a>gf edc|d2e f2e|f<ac B2A:|
|:c>AA eAA|cAc edc|d>BB fBB|dBd fed |
c>AA eAA|cAc edc|d2e f2e|f<ac B2A:|
